X: 7
T: The Kerry
R: polka
M: 2/4
L: 1/8
K: Ador
BD ED  | BD ED| G2 A2 | B/A/G ED| BD ED | BD ED| G2 A2 | BA GG :|
Bd BA | AG ED| G2 A2 | B/A/G ED| Bd BA | AG ED| G2 A2 | BA GG :|


Tune 39	Setting 39

